X:0
T:Twelfth Night
C:Copyright 2011 Bliss McIntosh
K:D
L:1/8
M:3/4
|:"D"D3E FG | A2F2D2 | "G"d3cB2 | "A"A6 | 
"D"D3E FG | A2F2D2 | "G"G4 (3FGF | "A"E6 | 
"D"DC DE FG | A2F2D2 | "Bm"d3c de | "F#"f4ef | 
"G"g3f ga | "D"b2f2d2 | "A"A3c ec |1 "D"d6 :|2 d3e fg | 
|:"D"a3a aa | a2f2d2 | "G"g4 (3fgf | "Em"B6 | 
"A"e4ef|g2f2e2 | "G"dc de fg | "A"a4fg | 
"D"a3a aa | }a2f2d2 | "G"g4 (3fgf | "Em"B6 | 
"A"A^G AB cd | e2c2A2 | "G"d3c "A"de |1 "D"d3e fg :|2 d6 |